;FLAVOR:Marlin
;TIME:4496
;Filament used: 3.67297m
;Layer height: 0.2
;Generated with Cura_SteamEngine 3.4.1
M190 S60
M104 S200
M109 S200
M82 ;absolute extrusion mode
G21 ;metric values
G90 ;absolute positioning
M82 ;set extruder to absolute mode
M107 ;start with the fan off
G28 X0 Y0 ;move X/Y to min endstops
G28 Z0 ;move Z to min endstops
G1 Z15.0 F100 ;move the platform down 15mm
G92 E0 ;zero the extruded length
G1 F200 E3 ;extrude 3mm of feed stock
G92 E0 ;zero the extruded length again
G1 F100
M117 Printing...
G5
G92 E0
G1 F2400 E-6
;LAYER_COUNT:69
;LAYER:-6
M107
M204 S3000
M205 X10 Y10
G0 F6000 X72.384 Y64.479 Z0.24
M204 S1800
M205 X8 Y8
G1 F2400 E0
G1 F1125 X72.488 Y64.372 E0.01191
G1 X73.153 Y63.734 E0.08547
G1 X73.277 Y63.623 E0.09876
G1 X74.082 Y62.962 E0.1819
G1 X74.628 Y62.564 E0.23584
G1 X75.149 Y62.205 E0.28634
G1 X76.145 Y61.58 E0.38021
G1 X76.927 Y61.16 E0.45106
G1 X77.082 Y61.084 E0.46484
G1 X77.921 Y60.711 E0.53814
G1 X78.133 Y60.626 E0.55637
G1 X78.798 Y60.302 E0.61542
G1 X79.152 Y60.098 E0.64803
G1 X79.335 Y60.001 E0.66456
G1 X80.147 Y59.613 E0.7364
G1 X80.89 Y59.178 E0.80513
G1 X81.121 Y59.025 E0.82724
G1 X81.88 Y58.57 E0.89788
G1 X82.028 Y58.488 E0.91139
G1 X82.952 Y58.024 E0.99392
G1 X83.493 Y57.79 E1.04098
G1 X83.971 Y57.593 E1.08225
G1 X84.889 Y57.252 E1.16042
G1 X85.05 Y57.198 E1.17397
G1 X85.916 Y56.947 E1.24594
G1 X87.014 Y56.7 E1.33578
G1 X87.192 Y56.667 E1.35023
G1 X88.223 Y56.517 E1.4334
G1 X89.149 Y56.447 E1.50753
G1 X89.301 Y56.441 E1.51967
G1 X90.361 Y56.442 E1.60428
G1 X91.46 Y56.525 E1.69226
G1 X92.422 Y56.534 E1.76905
G1 X93.413 Y56.451 E1.84844
G1 X94.448 Y56.436 E1.93106
G1 X95.489 Y56.494 E2.01429
G1 X95.695 Y56.515 E2.03082
G1 X96.563 Y56.633 E2.10074
G1 X97.559 Y56.84 E2.18195
G1 X98.442 Y57.063 E2.25465
G1 X99.498 Y57.409 E2.34335
G1 X100.165 Y57.672 E2.40058
G1 X100.613 Y57.863 E2.43946
G1 X101.533 Y58.294 E2.52056
G1 X101.81 Y58.443 E2.54566
G1 X102.414 Y58.733 E2.59915
G1 X103.062 Y58.948 E2.65364
G1 X103.732 Y59.079 E2.70814
G1 X104.413 Y59.126 E2.76263
G1 X105.095 Y59.086 E2.81716
G1 X105.766 Y58.959 E2.87168
G1 X106.421 Y58.748 E2.92661
G1 X107.284 Y58.313 E3.00375
G1 X108.276 Y57.699 E3.09688
G1 X109.023 Y57.299 E3.16452
G1 X109.546 Y57.039 E3.21114
G1 X110.398 Y56.649 E3.28594
G1 X110.567 Y56.58 E3.30051
G1 X111.393 Y56.274 E3.37082
G1 X111.565 Y56.218 E3.38526
G1 X112.384 Y55.98 E3.45334
G1 X112.683 Y55.904 E3.47797
G1 X113.522 Y55.715 E3.54662
G1 X113.703 Y55.68 E3.56134
G1 X114.589 Y55.542 E3.63291
G1 X114.886 Y55.487 E3.65702
G1 X115.754 Y55.355 E3.72711
G1 X115.946 Y55.334 E3.74253
G1 X116.404 Y55.298 E3.7792
G1 X116.948 Y55.226 E3.823
G1 X117.613 Y55.107 E3.87693
G1 X118.54 Y55.004 E3.95138
G1 X118.678 Y54.994 E3.96242
G1 X119.586 Y54.959 E4.03496
G1 X119.752 Y54.958 E4.04821
G1 X120.798 Y54.999 E4.13177
G1 X121.886 Y55.123 E4.21918
G1 X122.766 Y55.284 E4.29059
G1 X122.925 Y55.32 E4.30361
G1 X123.957 Y55.594 E4.38884
G1 X124.805 Y55.881 E4.4603
G1 X124.957 Y55.939 E4.47329
G1 X126.28 Y56.498 E4.58794
G1 X126.285 Y56.484 E4.58912
G1 X126.413 Y56.534 E4.60009
G1 X127.08 Y56.702 E4.655
G1 X128.043 Y56.791 E4.7322
G1 X128.609 Y56.792 E4.77738
G1 X129.61 Y56.828 E4.85733
G1 X130.65 Y56.939 E4.94082
G1 X130.825 Y56.964 E4.95493
G1 X131.837 Y57.156 E5.03716
G1 X132.891 Y57.438 E5.12425
G1 X133.736 Y57.726 E5.19551
G1 X133.902 Y57.789 E5.20968
G1 X134.705 Y58.13 E5.27932
G1 X134.894 Y58.218 E5.29597
G1 X135.687 Y58.627 E5.36719
G1 X136.428 Y59.061 E5.43574
G1 X137.401 Y59.715 E5.52932
G1 X138.134 Y60.287 E5.60354
G1 X138.27 Y60.401 E5.61771
G1 X138.909 Y60.979 E5.68648
G1 X139.054 Y61.121 E5.70268
G1 X139.666 Y61.76 E5.77331
G1 X139.781 Y61.89 E5.78717
G1 X140.349 Y62.579 E5.85845
G1 X140.451 Y62.712 E5.87183
G1 X141.052 Y63.568 E5.95531
G1 X141.607 Y64.493 E6.04142
G1 X142.11 Y65.465 E6.12879
G1 X142.524 Y66.363 E6.20772
G1 X142.64 Y66.651 E6.2325
G1 X142.889 Y67.207 E6.28113
G1 X143.037 Y67.498 E6.30719
G1 X143.437 Y68.337 E6.38139
G1 X143.828 Y69.329 E6.4665
G1 X143.873 Y69.459 E6.47748
G1 X144.139 Y70.322 E6.54957
G1 X144.185 Y70.492 E6.56363
G1 X144.384 Y71.358 E6.63456
G1 X144.42 Y71.546 E6.64984
G1 X144.551 Y72.404 E6.71912
G1 X144.572 Y72.584 E6.73359
G1 X144.643 Y73.479 E6.80525
G1 X144.651 Y73.662 E6.81988
G1 X144.656 Y74.54 E6.88996
G1 X144.651 Y74.728 E6.90498
G1 X144.577 Y75.762 E6.98772
G1 X144.535 Y76.057 E7.01151
G1 X144.483 Y76.725 E7.06499
G1 X144.513 Y77.357 E7.1155
G1 X144.577 Y77.963 E7.16414
G1 X144.637 Y78.691 E7.22245
G1 X144.706 Y79.91 E7.31991
G1 X144.73 Y80.569 E7.37255
G1 X144.748 Y82.073 E7.49262
G1 X144.733 Y83.326 E7.59264
G1 X144.701 Y84.172 E7.66022
G1 X144.634 Y85.263 E7.74748
G1 X144.577 Y85.926 E7.80059
G1 X144.465 Y86.962 E7.88377
G1 X144.38 Y87.6 E7.93515
G1 X144.198 Y88.765 E8.02928
G1 X144.143 Y89.301 E8.07229
G1 X144.122 Y89.727 E8.10633
G1 X144.064 Y90.243 E8.14778
G1 X144.05 Y90.466 E8.16562
G1 X144.026 Y90.466 E8.16753
G1 X144.021 Y91.112 E8.2191
G1 X143.967 Y92.179 E8.30438
G1 X143.861 Y93.065 E8.37561
G1 X143.833 Y93.241 E8.38984
G1 X143.627 Y94.274 E8.47392
G1 X143.391 Y95.145 E8.54595
G1 X143.041 Y96.162 E8.63181
G1 X142.727 Y96.96 E8.70026
G1 X142.447 Y97.667 E8.76096
G1 X142.123 Y98.356 E8.82174
G1 X141.824 Y98.946 E8.87454
G1 X141.303 Y99.886 E8.96033
G1 X140.709 Y100.793 E9.04687
G1 X140.059 Y101.643 E9.13229
G1 X139.471 Y102.312 E9.20339
G1 X139.341 Y102.448 E9.2184
G1 X138.724 Y103.055 E9.28749
G1 X138.587 Y103.18 E9.3023
G1 X137.912 Y103.753 E9.37298
G1 X137.757 Y103.874 E9.38867
G1 X136.915 Y104.485 E9.47172
G1 X136.346 Y104.85 E9.52568
G1 X135.477 Y105.348 E9.60563
G1 X135.299 Y105.441 E9.62166
G1 X134.511 Y105.818 E9.69139
G1 X134.346 Y105.889 E9.70573
G1 X133.497 Y106.221 E9.7785
G1 X133.343 Y106.274 E9.7915
G1 X132.491 Y106.538 E9.8627
G1 X132.336 Y106.579 E9.87549
G1 X131.473 Y106.778 E9.94619
G1 X131.277 Y106.816 E9.96213
G1 X130.387 Y106.954 E10.03402
G1 X129.212 Y107.05 E10.12813
G1 X128.566 Y107.064 E10.17971
G1 X127.757 Y107.064 E10.24428
G1 X127.089 Y107.106 E10.29771
G1 X126.415 Y107.236 E10.3525
G1 X125.63 Y107.506 E10.41877
G1 X125.085 Y107.743 E10.46621
G1 X124.91 Y107.812 E10.48122
G1 X124.075 Y108.105 E10.55186
G1 X123.919 Y108.153 E10.56489
G1 X123.029 Y108.395 E10.63851
G1 X122.899 Y108.425 E10.64916
G1 X121.991 Y108.601 E10.72299
G1 X121.835 Y108.625 E10.73559
G1 X120.945 Y108.73 E10.80713
G1 X120.774 Y108.744 E10.82082
G1 X119.873 Y108.785 E10.89282
G1 X118.658 Y108.753 E10.98984
G1 X117.735 Y108.659 E11.0639
G1 X117.108 Y108.572 E11.11443
G1 X117.104 Y108.593 E11.11614
G1 X116.922 Y108.572 E11.13076
G1 X116.655 Y108.562 E11.15209
G1 X115.613 Y108.482 E11.23551
G1 X114.564 Y108.324 E11.32019
G1 X113.088 Y107.995 E11.4409
G1 X113.088 Y108 E11.4413
G1 X112.198 Y107.773 E11.51462
G1 X111.318 Y107.506 E11.58803
G1 X110.352 Y107.139 E11.67051
G1 X110.188 Y107.069 E11.68475
G1 X109.217 Y106.608 E11.77055
G1 X108.732 Y106.354 E11.81425
G1 X107.944 Y105.907 E11.88657
G1 X107.77 Y105.801 E11.90283
G1 X107.444 Y105.582 E11.93418
G1 X106.863 Y105.246 E11.98776
G1 X106.234 Y104.982 E12.04221
G1 X105.577 Y104.798 E12.09667
G1 X104.901 Y104.699 E12.15121
G1 X104.218 Y104.686 E12.20574
G1 X103.54 Y104.759 E12.26017
G1 X102.876 Y104.917 E12.31466
G1 X102.241 Y105.156 E12.36882
G1 X100.852 Y105.844 E12.49255
G1 X100.306 Y106.076 E12.5399
G1 X99.78 Y106.284 E12.58506
G1 X98.895 Y106.603 E12.66015
G1 X97.882 Y106.891 E12.74422
G1 X96.955 Y107.1 E12.82007
G1 X96.062 Y107.246 E12.8923
G1 X95.868 Y107.27 E12.9079
G1 X95.007 Y107.347 E12.97691
G1 X94.818 Y107.356 E12.99201
G1 X93.945 Y107.37 E13.06171
G1 X93.757 Y107.365 E13.07672
G1 X91.961 Y107.239 E13.22044
G1 X91.961 Y107.256 E13.22179
G1 X91.841 Y107.251 E13.23138
G1 X91.455 Y107.273 E13.26224
G1 X90.728 Y107.341 E13.32053
G1 X90.547 Y107.352 E13.335
G1 X89.642 Y107.371 E13.40726
G1 X89.482 Y107.369 E13.42003
G1 X88.434 Y107.308 E13.50383
G1 X87.371 Y107.169 E13.58941
G1 X86.46 Y106.984 E13.66361
G1 X85.574 Y106.767 E13.73642
G1 X85.391 Y106.712 E13.75168
G1 X83.941 Y106.207 E13.87424
G1 X83.488 Y106.021 E13.91333
G1 X82.476 Y105.56 E14.0021
G1 X81.672 Y105.125 E14.07507
G1 X80.959 Y104.676 E14.14233
G1 X80.377 Y104.355 E14.19539
G1 X79.342 Y103.86 E14.28697
G1 X78.703 Y103.502 E14.34543
G1 X78.427 Y103.375 E14.36969
G1 X78.435 Y103.353 E14.37155
G1 X77.819 Y103.101 E14.42468
G1 X77.015 Y102.738 E14.4951
G1 X76.851 Y102.657 E14.5097
G1 X75.931 Y102.151 E14.59351
G1 X75.103 Y101.619 E14.67207
G1 X74.65 Y101.306 E14.71603
G1 X73.879 Y100.733 E14.79271
G1 X73.737 Y100.619 E14.80724
G1 X73.07 Y100.045 E14.87749
G1 X72.932 Y99.917 E14.89251
G1 X72.311 Y99.298 E14.9625
G1 X71.722 Y98.639 E15.03306
G1 X70.993 Y97.754 E15.12458
G1 X70.604 Y97.257 E15.17496
G1 X69.996 Y96.422 E15.25741
G1 X69.911 Y96.295 E15.26961
G1 X69.359 Y95.396 E15.35382
G1 X68.93 Y94.575 E15.42776
G1 X68.863 Y94.435 E15.44015
G1 X68.448 Y93.464 E15.52445
G1 X68.034 Y92.273 E15.6251
G1 X67.985 Y92.148 E15.63581
G1 X67.67 Y91.284 E15.70922
G1 X67.623 Y91.141 E15.72124
G1 X67.331 Y90.095 E15.80793
G1 X67.185 Y89.415 E15.86344
G1 X67.07 Y88.805 E15.91299
G1 X66.908 Y87.699 E16.00222
G1 X66.86 Y87.155 E16.04582
G1 X66.818 Y86.815 E16.07316
G1 X66.701 Y86.052 E16.13478
G1 X66.628 Y85.521 E16.17757
G1 X66.514 Y84.523 E16.25775
G1 X66.465 Y83.978 E16.30143
G1 X66.392 Y82.982 E16.38115
G1 X66.356 Y81.993 E16.46014
G1 X66.39 Y80.881 E16.54895
G1 X66.456 Y79.944 E16.62393
G1 X66.523 Y79.236 E16.6807
G1 X66.582 Y78.713 E16.72271
G1 X66.643 Y78.082 E16.77332
G1 X66.72 Y77.554 E16.81591
G1 X66.827 Y76.927 E16.86668
G1 X66.874 Y76.568 E16.89558
G1 X66.967 Y75.675 E16.96725
G1 X67.069 Y75.058 E17.01717
G1 X67.175 Y74.491 E17.06322
G1 X67.4 Y73.489 E17.14519
G1 X67.714 Y72.439 E17.23268
G1 X68.176 Y71.193 E17.33875
G1 X68.369 Y70.609 E17.38785
G1 X68.702 Y69.778 E17.45931
G1 X68.775 Y69.616 E17.4735
G1 X69.153 Y68.845 E17.54204
G1 X69.249 Y68.665 E17.55832
G1 X69.7 Y67.891 E17.62983
G1 X69.798 Y67.74 E17.6442
G1 X70.607 Y66.597 E17.75598
G1 X71.288 Y65.735 E17.84367
G1 X71.747 Y65.188 E17.90067
G1 X72.384 Y64.479 E17.97676
M204 S3000
M205 X10 Y10
G0 F6000 X72 Y64.906
M204 S1800
M205 X8 Y8
G1 F1125 X72 Y98.95 E20.69429
M204 S3000
M205 X10 Y10
G0 F6000 X73.6 Y100.501
M204 S1800
M205 X8 Y8
G1 F1125 X73.6 Y63.357 E23.65929
M204 S3000
M205 X10 Y10
G0 F6000 X75.2 Y62.172
M204 S1800
M205 X8 Y8
G1 F1125 X75.2 Y101.681 E26.81307
M204 S3000
M205 X10 Y10
G0 F6000 X76.8 Y102.628
M204 S1800
M205 X8 Y8
G1 F1125 X76.8 Y61.228 E30.1178
M204 S3000
M205 X10 Y10
G0 F6000 X78.4 Y60.495
M204 S1800
M205 X8 Y8
G1 F1125 X78.4 Y103.338 E33.53771
M204 S3000
M205 X10 Y10
G0 F6000 X80 Y104.174
M204 S1800
M205 X8 Y8
G1 F1125 X80 Y59.683 E37.08917
M204 S3000
M205 X10 Y10
G0 F6000 X81.6 Y58.737
M204 S1800
M205 X8 Y8
G1 F1125 X81.6 Y105.079 E40.78839
M204 S3000
M205 X10 Y10
G0 F6000 X83.2 Y105.889
M204 S1800
M205 X8 Y8
G1 F1125 X83.2 Y57.916 E44.6178
M204 S3000
M205 X10 Y10
G0 F6000 X84.8 Y57.285
M204 S1800
M205 X8 Y8
G1 F1125 X84.8 Y106.506 E48.54684
M204 S3000
M205 X10 Y10
G0 F6000 X86.4 Y106.969
M204 S1800
M205 X8 Y8
G1 F1125 X86.4 Y56.838 E52.54851
M204 S3000
M205 X10 Y10
G0 F6000 X88 Y56.549
M204 S1800
M205 X8 Y8
G1 F1125 X88 Y107.251 E56.59576
M204 S3000
M205 X10 Y10
G0 F6000 X89.6 Y107.37
M204 S1800
M205 X8 Y8
G1 F1125 X89.6 Y56.442 E60.66106
M204 S3000
M205 X10 Y10
G0 F6000 X91.2 Y56.506
M204 S1800
M205 X8 Y8
G1 F1125 X91.2 Y107.297 E64.71541
M204 S3000
M205 X10 Y10
G0 F6000 X92.8 Y107.297
M204 S1800
M205 X8 Y8
G1 F1125 X92.8 Y56.502 E68.77009
M204 S3000
M205 X10 Y10
G0 F6000 X94.4 Y56.436
M204 S1800
M205 X8 Y8
G1 F1125 X94.4 Y107.363 E72.8353
M204 S3000
M205 X10 Y10
G0 F6000 X96 Y107.254
M204 S1800
M205 X8 Y8
G1 F1125 X96 Y56.557 E76.88216
M204 S3000
M205 X10 Y10
G0 F6000 X97.6 Y56.851
M204 S1800
M205 X8 Y8
G1 F1125 X97.6 Y106.955 E80.88168
M204 S3000
M205 X10 Y10
G0 F6000 X99.2 Y106.494
M204 S1800
M205 X8 Y8
G1 F1125 X99.2 Y57.312 E84.8076
M204 S3000
M205 X10 Y10
G0 F6000 X100.8 Y57.951
M204 S1800
M205 X8 Y8
G1 F1125 X100.8 Y105.867 E88.63246
M204 S3000
M205 X10 Y10
G0 F6000 X102.4 Y105.097
M204 S1800
M205 X8 Y8
G1 F1125 X102.4 Y58.727 E92.33391
M204 S3000
M205 X10 Y10
G0 F6000 X104 Y59.098
M204 S1800
M205 X8 Y8
G1 F1125 X104 Y104.71 E95.97486
M204 S3000
M205 X10 Y10
G0 F6000 X105.6 Y104.804
M204 S1800
M205 X8 Y8
G1 F1125 X105.6 Y58.99 E99.63193
M204 S3000
M205 X10 Y10
G0 F6000 X107.2 Y58.355
M204 S1800
M205 X8 Y8
G1 F1125 X107.2 Y105.44 E103.39046
M204 S3000
M205 X10 Y10
G0 F6000 X108.8 Y106.389
M204 S1800
M205 X8 Y8
G1 F1125 X108.8 Y57.418 E107.29954
M204 S3000
M205 X10 Y10
G0 F6000 X110.4 Y56.648
M204 S1800
M205 X8 Y8
G1 F1125 X110.4 Y107.157 E111.33138
M204 S3000
M205 X10 Y10
G0 F6000 X112 Y107.712
M204 S1800
M205 X8 Y8
G1 F1125 X112 Y56.091 E115.45199
M204 S3000
M205 X10 Y10
G0 F6000 X113.6 Y55.699
M204 S1800
M205 X8 Y8
G1 F1125 X113.6 Y108.109 E119.63559
M204 S3000
M205 X10 Y10
G0 F6000 X115.2 Y108.419
M204 S1800
M205 X8 Y8
G1 F1125 X115.2 Y55.439 E123.86468
M204 S3000
M205 X10 Y10
G0 F6000 X116.8 Y55.245
M204 S1800
M205 X8 Y8
G1 F1125 X116.8 Y108.567 E128.12107
M204 S3000
M205 X10 Y10
G0 F6000 X118.4 Y108.726
M204 S1800
M205 X8 Y8
G1 F1125 X118.4 Y55.019 E132.4082
M204 S3000
M205 X10 Y10
G0 F6000 X120 Y54.968
M204 S1800
M205 X8 Y8
G1 F1125 X120 Y108.78 E136.7037
M204 S3000
M205 X10 Y10
G0 F6000 X121.6 Y108.653
M204 S1800
M205 X8 Y8
G1 F1125 X121.6 Y55.091 E140.97925
M204 S3000
M205 X10 Y10
G0 F6000 X123.2 Y55.394
M204 S1800
M205 X8 Y8
G1 F1125 X123.2 Y108.349 E145.20635
M204 S3000
M205 X10 Y10
G0 F6000 X124.8 Y107.851
M204 S1800
M205 X8 Y8
G1 F1125 X124.8 Y55.88 E149.3549
M204 S3000
M205 X10 Y10
G0 F6000 X126.4 Y56.529
M204 S1800
M205 X8 Y8
G1 F1125 X126.4 Y107.242 E153.40303
M204 S3000
M205 X10 Y10
G0 F6000 X128 Y107.064
M204 S1800
M205 X8 Y8
G1 F1125 X128 Y56.788 E157.41628
M204 S3000
M205 X10 Y10
G0 F6000 X129.6 Y56.828
M204 S1800
M205 X8 Y8
G1 F1125 X129.6 Y107.019 E161.42274
M204 S3000
M205 X10 Y10
G0 F6000 X131.2 Y106.828
M204 S1800
M205 X8 Y8
G1 F1125 X131.2 Y57.036 E165.39736
M204 S3000
M205 X10 Y10
G0 F6000 X132.8 Y57.414
M204 S1800
M205 X8 Y8
G1 F1125 X132.8 Y106.443 E169.31106
M204 S3000
M205 X10 Y10
G0 F6000 X134.4 Y105.866
M204 S1800
M205 X8 Y8
G1 F1125 X134.4 Y58.001 E173.13185
M204 S3000
M205 X10 Y10
G0 F6000 X136 Y58.811
M204 S1800
M205 X8 Y8
G1 F1125 X136 Y105.049 E176.82277
M204 S3000
M205 X10 Y10
G0 F6000 X137.6 Y103.988
M204 S1800
M205 X8 Y8
G1 F1125 X137.6 Y59.871 E180.34438
M204 S3000
M205 X10 Y10
G0 F6000 X139.2 Y61.274
M204 S1800
M205 X8 Y8
G1 F1125 X139.2 Y102.587 E183.64216
M204 S3000
M205 X10 Y10
G0 F6000 X140.8 Y100.655
M204 S1800
M205 X8 Y8
G1 F1125 X140.8 Y63.21 E186.63118
M204 S3000
M205 X10 Y10
G0 F6000 X142.4 Y66.095
M204 S1800
M205 X8 Y8
G1 F1125 X142.4 Y97.767 E189.15938
M204 S3000
M205 X10 Y10
G0 F6000 X144 Y91.527
M204 S1800
M205 X8 Y8
G1 F1125 X144 Y69.872 E190.88798
M204 S3000
M205 X10 Y10
G0 F6000 X70.4 Y66.889
M204 S1800
M205 X8 Y8
G1 F1125 X70.4 Y96.976 E193.28965
M204 S3000
M205 X10 Y10
G0 F6000 X68.8 Y94.287
M204 S1800
M205 X8 Y8
G1 F1125 X68.8 Y69.565 E195.26307
M204 S3000
M205 X10 Y10
G0 F6000 X67.2 Y74.379
M204 S1800
M205 X8 Y8
G1 F1125 X67.2 Y89.484 E196.46881
M204 S3000
M205 X10 Y10
G0 F6000 X71.721 Y98.638
;TIME_ELAPSED:143.092402
;LAYER:-5
M140 S60
G0 X71.721 Y98.638 Z0.54
M204 S1800
M205 X8 Y8
;TYPE:SUPPORT
G1 F1125 X72.31 Y99.296 E196.55693
G1 X72.931 Y99.916 E196.64449
G1 X73.069 Y100.044 E196.66327
G1 X73.737 Y100.618 E196.75115
G1 X73.793 Y100.663 E196.75832
G1 X73.879 Y100.732 E196.76932
G1 X74.649 Y101.305 E196.86509
G1 X75.103 Y101.618 E196.92011
G1 X75.93 Y102.15 E197.01823
G1 X76.851 Y102.656 E197.12309
G1 X77.015 Y102.736 E197.14129
G1 X77.5 Y102.956 E197.19443
G1 X68.776 Y94.232 E198.42548
G1 X68.448 Y93.463 E198.5089
G1 X68.034 Y92.272 E198.63472
G1 X67.985 Y92.147 E198.64811
G1 X67.916 Y91.957 E198.66828
G1 X80.254 Y104.296 E200.40938
G1 X80.376 Y104.354 E200.42286
G1 X80.958 Y104.675 E200.48918
G1 X81.672 Y105.124 E200.57334
G1 X82.476 Y105.559 E200.66455
G1 X83.313 Y105.94 E200.75631
G1 X67.293 Y89.92 E203.0169
